X:1
T:Gaudent in Coelis
T:Gaudent in Coelis
T:Giovanni Girolamo Kapsperger
T:Source : Libro primo di mottetti passeggiati a una voce---Roma---1612. Racolta del Sig.Francesco de Nobili Editor : André Vierendeels (23/10/15).
T:Notes : Original clefs : C1, F4 Figures in BC are notated in original MS Note values have been halved in 3-beat measures
C:Giovanni Girolamo Kapsperger
%%score 1 2
L:1/8
Q:1/4=80
M:3/4
K:F
V:1 treble nm="Soprano" snm="S"
V:2 bass nm="BC" snm="BC"
V:1
 G2 A2 =B2 | c4 B2 | d4 c2 | c4 B/A/c/B/ |[M:4/4] A4 G4 |[M:3/4] B2 c2 d2 | _e4 d2 | f4 _e2 | %8
w: Gau- dent in|Coe- lis,|a- ni-|mae san- * * *|cto- rum,|gau- dent in|Coe- lis|a- ni-|
[M:4/4] d2 A/=B/c/A/ d/c/B/A/ G/A/B/G/ | A/=B/c/d/ _e/d/f/e/ d4 | c6 _e2 | _e4 d3 c | c3 c c2 f2- | %13
w: mae san- * * * * * * * * * * *|* * * * * * * * cto-|rum, qui|Chri- sti ve-|sti- gi- a sunt|
 f3 _e/d/4c/4 B3 c/B/4A/4 | G>A F/G/A/B/ c/d/c/_e/ d/e/d/e/ | d3 _e/f/ B3 c/d/4e/4 | %16
w: _ se- * * * * * *|||
 d2 _e/d/c/B/ c4 | B6 c2 | c6 cB | B>c d/G/A/B/ A/B/A/B/ A/A/A/G/ | A3 D EFGA | Bcde E3 F | %22
w: * * * * * cu-|ti et|qui- a pro|e- * * * * * * * * * * * * *|ius A- * * * *|* * * * mo- *|
 D3 C D2 B2- | B2 AG _e4 | d3 B A4 | G8 | B3 B B2 c2 | d4 d2 B/c/d/_e/ | %28
w: re _ _ san-|* gui- nem su-|um fu- de-|runt|i- de- o cum|Chri- sto ex- * * *|
 f/4_e/4f/4e/4f/e/ e/e/d e4 | d3 d _e3 d | c3 d d4 | c4 z C/D/ E/F/G/A/ | %32
w: * * * * * * * * sul- *|tant, ex- sul- tant|si- ne fi-|ne, ex- * * * * *|
 B/c/4B/4c/4B/4c/4B/4 B/B/A B4 | A3 A B3 A | G3 A A4 | G6 B/c/d/B/ | %36
w: * * * * * * * * * * sul-|tant, ex- sul- tant|si- ne fi-|ne, ex- * * *|
 c/d/G/A/ G/F/E/D/- D/E/F/G/ A/B/c/d/ | _e/4d/4e/4d/4e/4d/4d/4d/4 cB c4 | B4 d_efB | ABcA BcdB | %40
w: |* * * * * * * * * * sul-|tant si- * * *||
 cd_eG ABcd | _efgD E^FGA | Bcd_e A4 | !fermata!G8 |] %44
w: ||* * * ne fi-|ne.|
V:2
 G,2 ^F,2 G,2 |"^b" C,4 G,2 | D,4 E,2 | ^F,4 G,C, |[M:4/4] D,4 G,,4 |[M:3/4] G,2 F,2 D,2 | %6
 C,4 B,,2 | D,4 C,2 |[M:4/4] G,2 F,4 E,2 | F,4 G,4 | C,8 | C,4 B,,4 | F,6 D,2 | _E,8- | E,8 | %15
 B,,2 C,2 D,4 | D,4 F,4 | B,,4 F,4 | F,8 | G,8 | D,8- | D,4 A,,4 | D,8 | _E,4 C,4 | G,,2 C,2 D,4 | %25
 G,,8 | G,6 F,2 | B,8 | B,,4 C,4 |"^-natural" G,,4 C,2 D,2 | _E,2 F,2 G,4 | C,8- | C,4 G,,4 | %33
 D,4 G,,2 A,,2 | B,,2 C,2 D,4 | G,,8- | G,,8 | G,4 F,4 | B,,8 | F,4 G,4 | C,8 | G,,8 | D,8 | %43
 !fermata!G,,8 |] %44

